src/components/carditem/images/icon-heart.svg

<svg viewBox="0 0 22 20" fill="none" xmlns="http://www.w3.org/2000/svg">
<path d="M19.4134 2.74133C18.3781 1.61844 16.9575 1 15.413 1C14.2585 1 13.2012 1.36499 12.2704 2.08475C11.8008 2.44806 11.3752 2.89255 11 3.41135C10.6249 2.8927 10.1992 2.44806 9.7294 2.08475C8.79877 1.36499 7.74149 1 6.58701 1C5.04251 1 3.62177 1.61844 2.58646 2.74133C1.56351 3.85111 1 5.36722 1 7.01059C1 8.70203 1.63034 10.2503 2.98364 11.8833C4.19427 13.3441 5.93423 14.8269 7.94916 16.544C8.63718 17.1304 9.41705 17.795 10.2268 18.5031C10.4408 18.6904 10.7153 18.7936 11 18.7936C11.2846 18.7936 11.5592 18.6904 11.7729 18.5034C12.5826 17.7952 13.363 17.1302 14.0513 16.5435C16.0659 14.8268 17.8059 13.3441 19.0165 11.8832C20.3698 10.2503 21 8.70203 21 7.01044C21 5.36722 20.4365 3.85111 19.4134 2.74133Z" stroke="#FF8A9D" stroke-width="2"/>
</svg>

<svg width="22" height="20" fill="none" xmlns="http://www.w3.org/2000/svg"><path d="M19.413 2.741a5.378 5.378 0 00-4-1.741 5.032 5.032 0 00-3.143 1.085A6.43 6.43 0 0011 3.41a6.427 6.427 0 00-1.27-1.326A5.03 5.03 0 006.586 1a5.378 5.378 0 00-4 1.741C1.563 3.851 1 5.367 1 7.011c0 1.691.63 3.24 1.984 4.872 1.21 1.461 2.95 2.944 4.965 4.661.688.586 1.468 1.251 2.278 1.96a1.173 1.173 0 001.546 0c.81-.709 1.59-1.374 2.278-1.96 2.015-1.717 3.755-3.2 4.966-4.66C20.37 10.25 21 8.701 21 7.01c0-1.643-.564-3.159-1.587-4.269z" stroke="#FF8A9D" stroke-width="2"/></svg>
